X: 1
T: Tippin' Back the Corn - A
R: reel
M: C|
L: 1/8
K: A
(3efg |"A"a2g2 f2e2 | [cE]3(E [cE]2)Bc- | cBcd cBAG| "D"[FA,]3 (A,[FA,]2) (3ABc |
|: CB,|"A"A,2A,A, A,F3 | [A,E]3F [EA,]4| A2AA Af3 | [eA]3f [Ae]2 ef- |